svg/business/luggage_fill.svg

<?xml version="1.0" encoding="UTF-8"?>
<svg width="24px" height="24px" viewBox="0 0 24 24" version="1.1" xmlns="http://www.w3.org/2000/svg" xmlns:xlink="http://www.w3.org/1999/xlink">
    <title>luggage_fill</title>
    <g id="Icon" stroke="none" stroke-width="1" fill="none" fill-rule="evenodd">
        <g id="Business" transform="translate(-384.000000, -240.000000)">
            <g id="luggage_fill" transform="translate(384.000000, 240.000000)">
                <path d="M24,0 L24,24 L0,24 L0,0 L24,0 Z M12.5934901,23.257841 L12.5819402,23.2595131 L12.5108777,23.2950439 L12.4918791,23.2987469 L12.4918791,23.2987469 L12.4767152,23.2950439 L12.4056548,23.2595131 C12.3958229,23.2563662 12.3870493,23.2590235 12.3821421,23.2649074 L12.3780323,23.275831 L12.360941,23.7031097 L12.3658947,23.7234994 L12.3769048,23.7357139 L12.4804777,23.8096931 L12.4953491,23.8136134 L12.4953491,23.8136134 L12.5071152,23.8096931 L12.6106902,23.7357139 L12.6232938,23.7196733 L12.6232938,23.7196733 L12.6266527,23.7031097 L12.609561,23.275831 C12.6075724,23.2657013 12.6010112,23.2592993 12.5934901,23.257841 L12.5934901,23.257841 Z M12.8583906,23.1452862 L12.8445485,23.1473072 L12.6598443,23.2396597 L12.6498822,23.2499052 L12.6498822,23.2499052 L12.6471943,23.2611114 L12.6650943,23.6906389 L12.6699349,23.7034178 L12.6699349,23.7034178 L12.678386,23.7104931 L12.8793402,23.8032389 C12.8914285,23.8068999 12.9022333,23.8029875 12.9078286,23.7952264 L12.9118235,23.7811639 L12.8776777,23.1665331 C12.8752882,23.1545897 12.8674102,23.1470016 12.8583906,23.1452862 L12.8583906,23.1452862 Z M12.1430473,23.1473072 C12.1332178,23.1423925 12.1221763,23.1452606 12.1156365,23.1525954 L12.1099173,23.1665331 L12.0757714,23.7811639 C12.0751323,23.7926639 12.0828099,23.8018602 12.0926481,23.8045676 L12.108256,23.8032389 L12.3092106,23.7104931 L12.3186497,23.7024347 L12.3186497,23.7024347 L12.3225043,23.6906389 L12.340401,23.2611114 L12.337245,23.2485176 L12.337245,23.2485176 L12.3277531,23.2396597 L12.1430473,23.1473072 Z" id="MingCute" fill-rule="nonzero"></path>
                <path d="M14,2 C15.0543909,2 15.9181678,2.81587733 15.9945144,3.85073759 L16,4 L16,6 L17,6 C18.0543909,6 18.9181678,6.81587733 18.9945144,7.85073759 L19,8 L19,19 C19,20.1046 18.1046,21 17,21 C17,21.5523 16.5523,22 16,22 C15.48715,22 15.0644908,21.613973 15.0067275,21.1166239 L15,21 L9,21 C9,21.5523 8.55228,22 8,22 C7.44772,22 7,21.5523 7,21 C5.94563773,21 5.08183483,20.18415 5.00548573,19.1492661 L5,19 L5,8 C5,6.94563773 5.81587733,6.08183483 6.85073759,6.00548573 L7,6 L8,6 L8,4 C8,2.94563773 8.81587733,2.08183483 9.85073759,2.00548573 L10,2 L14,2 Z M10,10 C9.44772,10 9,10.4477 9,11 L9,16 C9,16.5523 9.44772,17 10,17 C10.5523,17 11,16.5523 11,16 L11,11 C11,10.4477 10.5523,10 10,10 Z M14,10 C13.48715,10 13.0644908,10.386027 13.0067275,10.8833761 L13,11 L13,16 C13,16.5523 13.4477,17 14,17 C14.51285,17 14.9355092,16.613973 14.9932725,16.1166239 L15,16 L15,11 C15,10.4477 14.5523,10 14,10 Z M14,4 L10,4 L10,6 L14,6 L14,4 Z" id="形状" fill="#09244B"></path>
            </g>
        </g>
    </g>
</svg>

<svg xmlns="http://www.w3.org/2000/svg" width="24" height="24"><g fill="none" fill-rule="evenodd"><path d="M24 0v24H0V0zM12.593 23.258l-.011.002-.071.035-.02.004-.014-.004-.071-.035c-.01-.004-.019-.001-.024.005l-.004.01-.017.428.005.02.01.013.104.074.015.004.012-.004.104-.074.012-.016.004-.017-.017-.427c-.002-.01-.009-.017-.017-.018m.265-.113-.013.002-.185.093-.01.01-.003.011.018.43.005.012.008.007.201.093c.012.004.023 0 .029-.008l.004-.014-.034-.614c-.003-.012-.01-.02-.02-.022m-.715.002a.023.023 0 0 0-.027.006l-.006.014-.034.614c0 .012.007.02.017.024l.015-.002.201-.093.01-.008.004-.011.017-.43-.003-.012-.01-.01z"/><path fill="#09244B" d="M14 2a2 2 0 0 1 1.995 1.85L16 4v2h1a2 2 0 0 1 1.995 1.85L19 8v11a2 2 0 0 1-2 2 1 1 0 0 1-1.993.117L15 21H9a1 1 0 1 1-2 0 2 2 0 0 1-1.995-1.85L5 19V8a2 2 0 0 1 1.85-1.995L7 6h1V4a2 2 0 0 1 1.85-1.995L10 2zm-4 8a1 1 0 0 0-1 1v5a1 1 0 1 0 2 0v-5a1 1 0 0 0-1-1m4 0a1 1 0 0 0-.993.883L13 11v5a1 1 0 0 0 1.993.117L15 16v-5a1 1 0 0 0-1-1m0-6h-4v2h4z"/></g></svg>
